healthcode/jkb/static/sxicon.svg

<svg height="20" viewBox="0 0 21 20" width="21" xmlns="http://www.w3.org/2000/svg"><g fill="none" fill-rule="evenodd" transform="translate(.562873 -.000004)"><path d="m0 .00001h20v20h-20z" fill="none"/><path d="m17.7633383 0c.557869 0 1.0101111.45218981 1.0101111 1.00999422v4.48184934l-.0051371.07479735c-.0222475.3074097-.1822545.60203906-.4578305.77738528-.1342169.08423155-.2806762.1332099-.4284571.14933403-.0424978.00569819-.0854976.00847756-.1292084.00847756h-4.4718462c-.557869 0-1.0101111-.45218981-1.0101111-1.00999422 0-.5578044.4522421-1.00999421 1.0101111-1.00999421l2.3413735-.00090214c-1.4197239-1.30774517-3.2979785-2.05673242-5.277009-2.05064862-4.2929723 0-7.78627331 3.49289667-7.78627331 7.78537211 0 4.2924754 3.49330101 7.7853721 7.78627331 7.7853721 3.1305897.0014516 5.9576064-1.8719555 7.1759979-4.7553895.2209618-.5155178.8101933-.7469748 1.3152489-.5365594.5155775.2209363.7470613.8100995.5366215 1.3150967-1.5327226 3.626699-5.0902043 5.9814959-9.0278683 5.9758094-5.39778135 0-9.79597359-4.3976935-9.79597359-9.7948501 0-5.39715659 4.39819224-9.79483975 9.79597359-9.79483975 2.3956722 0 4.6528507.8574968 6.4076977 2.37922403l.0001949-1.77953996c0-.55780441.4522421-1.00999422 1.0101111-1.00999422z" fill="#9c9c9c" fill-rule="nonzero"/></g></svg>

<?xml version="1.0" encoding="UTF-8"?>
<svg width="21px" height="20px" viewBox="0 0 21 20" version="1.1" xmlns="http://www.w3.org/2000/svg" xmlns:xlink="http://www.w3.org/1999/xlink">
    <title>刷新 icon</title>
    <g id="页面-1" stroke="none" stroke-width="1" fill="none" fill-rule="evenodd">
        <g id="画板" transform="translate(-733.000000, -858.000000)">
            <g id="编组-2" transform="translate(733.562873, 857.999996)">
                <rect id="矩形" fill-opacity="0" fill="#D8D8D8" x="0" y="1.02761805e-05" width="20" height="20"></rect>
                <path d="M17.7633383,0 C18.3212073,0 18.7734494,0.452189814 18.7734494,1.00999422 L18.7734494,5.49184356 L18.7683123,5.56664091 C18.7460648,5.87405061 18.5860578,6.16867997 18.3104818,6.34402619 C18.1762649,6.42825774 18.0298056,6.47723609 17.8820247,6.49336022 C17.8395269,6.49905841 17.7965271,6.50183778 17.7528163,6.50183778 L13.2809701,6.50183778 C12.7231011,6.50183778 12.270859,6.04964797 12.270859,5.49184356 C12.270859,4.93403916 12.7231011,4.48184935 13.2809701,4.48184935 L15.6223436,4.48094721 C14.2026197,3.17320204 12.3243651,2.42421479 10.3453346,2.43029859 C6.0523623,2.43029859 2.55906129,5.92319526 2.55906129,10.2156707 C2.55906129,14.5081461 6.0523623,18.0010428 10.3453346,18.0010428 C13.4759243,18.0024944 16.302941,16.1290873 17.5213325,13.2456533 C17.7422943,12.7301355 18.3315258,12.4986785 18.8365814,12.7090939 C19.3521589,12.9300302 19.5836427,13.5191934 19.3732029,14.0241906 C17.8404803,17.6508896 14.2829986,20.0056865 10.3453346,20 C4.94755325,20 0.549361006,15.6023065 0.549361006,10.2051499 C0.549361006,4.80799331 4.94755325,0.410310151 10.3453346,0.410310151 C12.7410068,0.410310151 14.9981853,1.26780695 16.7530323,2.78953418 L16.7532272,1.00999422 C16.7532272,0.452189814 17.2054693,0 17.7633383,0 Z" id="形状结合" fill="#9C9C9C" fill-rule="nonzero"></path>
            </g>
        </g>
    </g>
</svg>
